Adwaita++/actions/16/package-upgrade.svg

<svg fill="none" height="16" viewBox="0 0 16 16" width="16" xmlns="http://www.w3.org/2000/svg">
  <path clip-rule="evenodd" d="m4.78746 15.9955c.17431.0012.35379.0024.53871.0045h.00391 3.33594 2.00388.0039c.1844-.0021.3633-.0033.5371-.0044 1.4079-.0093 2.4797-.0163 3.3731-.5093.5018-.2769.8976-.7452 1.1172-1.3301.2196-.5848.2988-1.2794.2988-2.1562v-8c0-.8768-.0808-1.5714-.3008-2.1562-.2195-.5849-.6153-1.0533-1.1172-1.3301-.893-.4928005-1.9628-.4998996-3.3696-.50919961-.1742-.0012-.3537-.00240039-.5386-.00450039h-.0039-5.33982-.00391c-.18455.0021-.36366.00330039-.53765.00450039-1.40759.00930001-2.47925.01629911-3.3725.50919961-.501834.2768-.897632.7452-1.117192 1.3301-.2195799.5848-.298828 1.2794-.298828 2.1562v8c0 .8768.0792681 1.5714.298828 2.1562.21956.5849.615358 1.0533 1.117192 1.3301.58398.5092 1.96437.4999 3.37144.5092zm4.03895-2.9955h-1.67583v-6.59213l-1.80706 2.09608-1.34352-.86626 3.47054-4.02559.51795-.6121.49336.5717.00101-.0006 3.51714 4.06659-1.3435.86626-1.83009-2.12278z" fill="#c061cb" fill-rule="evenodd"/>
</svg>

<svg xmlns="http://www.w3.org/2000/svg" fill="none" width="16" height="16" version="1.1" viewBox="0 0 16 16">
 <path style="fill:#c061cb" fill-rule="evenodd" d="M4.78746 15.9955C4.96177 15.9967 5.14125 15.9979 5.32617 16H5.33008H8.66602H10.6699H10.6738C10.8582 15.9979 11.0371 15.9967 11.2109 15.9956C12.6188 15.9863 13.6906 15.9793 14.584 15.4863C15.0858 15.2094 15.4816 14.7411 15.7012 14.1562C15.9208 13.5714 16 12.8768 16 12V4C16 3.1232 15.9192 2.4286 15.6992 1.8438C15.4797 1.2589 15.0839 0.7905 14.582 0.5137C13.689 0.0208995 12.6192 0.0138004 11.2124 0.00450039C11.0382 0.00330039 10.8587 0.0021 10.6738 0H10.6699H5.33008H5.32617C5.14162 0.0021 4.96251 0.00330039 4.78852 0.00450039C3.38093 0.0138004 2.30927 0.0207995 1.41602 0.5137C0.914186 0.7905 0.518388 1.2589 0.298828 1.8438C0.0792481 2.4286 0 3.1232 0 4V12C0 12.8768 0.0792681 13.5714 0.298828 14.1562C0.518388 14.7411 0.914186 15.2095 1.41602 15.4863C2 15.9955 3.38039 15.9862 4.78746 15.9955ZM8.82641 13H7.15058V6.40787L5.34352 8.50395L4 7.63769L7.47054 3.6121L7.98849 3L8.48185 3.5717L8.48286 3.5711L12 7.63769L10.6565 8.50395L8.82641 6.38117V13Z" clip-rule="evenodd"/>
</svg>
